X: 21774
T: The RED RED ROSE
O: Scotch air.
Q: "Slow, with feeling."
%R: air, march
B: W. Hamilton "Universal Tune-Book" Vol. 2 Glasgow 1846 p.177 #4
S: http://s3-eu-west-1.amazonaws.com/itma.dl.printmaterial/book_pdfs/hamiltonvol2web.pdf
Z: 2016 John Chambers <jc:trillian.mit.edu>
M: C
L: 1/8
K: D
% - - - - - - - - - - - - - - - - - - - - - - - - -
A/F/ |\
DDEF d>cBA | B>ABd He2 (de/).f/ |\
DDEF d>cBA | BABc d2z :| \
|: A |\
d{de}fed BdAF | AAgf {f}He2 (a>g) |\
fafd BdAF | A>ABc d2z :|
% - - - - - - - - - - - - - - - - - - - - - - - - -

%%sep 1 1 500
%%sep 1 1 500

